Simply-Cyan-Circles/scalable/mimes/application-x-lzma-compressed-tar.svg

<?xml version="1.0" encoding="UTF-8" standalone="no"?><svg xmlns:dc="http://purl.org/dc/elements/1.1/" xmlns:cc="http://creativecommons.org/ns#" xmlns:rdf="http://www.w3.org/1999/02/22-rdf-syntax-ns#" xmlns="http://www.w3.org/2000/svg" width="48" height="48" viewBox="0 0 12.7 12.7"><metadata><rdf:RDF><cc:Work><dc:format>image/svg+xml</dc:format><dc:type rdf:resource="http://purl.org/dc/dcmitype/StillImage"/><dc:title/></cc:Work></rdf:RDF></metadata><path d="M1.21.86L.14 3.66h6.04V.86H1.21zm5.18 0v2.8h6.11L11.4.86H6.4zM.19 3.89v6.31c0 .64.25 1.18.74 1.64.5.45 1.08.67 1.78.67h7.25c.7 0 1.28-.22 1.78-.67.49-.46.73-1 .73-1.64V3.9h-1.12v6.3c0 .36-.13.66-.4.91a1.4 1.4 0 0 1-.99.38H2.71a1.4 1.4 0 0 1-.99-.38 1.19 1.19 0 0 1-.41-.9V3.88H.19zm1.53 1.4v1.06H2v1.06h.53V6.35h.26V5.29H1.72zm1.32.05v.53h.53v-.53h-.53zm.53.53v.53h.53v-.53h-.53zm.53 0h.53v-.53H4.1v.53zm.53 0v.53h.53v-.53h-.53zm.53 0h.52v-.53h-.52v.53zm.52 0v.53h.53v-.53h-.53zm.53 0h.53v-.53h-.53v.53zm.53 0v.53h.53v-.53h-.53zm.53 0h.53v-.53h-.53v.53zm.53 0v.53h.53v-.53H7.8zm.53 0h.53v-.53h-.53v.53zm.53 0v.53h.53v-.53h-.53zm.53 0h.53v-.53h-.53v.53zm.53 0v.53h.53v-.53h-.53zm.53 0h.53v-.53h-.53v.53zm-8.46-.31h.53v.53h-.53v-.53zm-.16 2.32v.5h-.15v.31h.16v1.15h.32V8.69h.2v-.32h-.2v-.49h-.32zm3.76 0v1.96h.32V7.88H5.6zm-2.41.46a.49.49 0 0 0-.03 0c-.4 0-.69.32-.69.77 0 .44.28.76.68.76.19 0 .32-.06.45-.22v.19h.3V8.37h-.3v.2a.49.49 0 0 0-.41-.23zm4.72 0a.4.4 0 0 0-.3.17v-.14h-.3v1.47h.32v-.72c0-.15.01-.25.03-.3a.24.24 0 0 1 .23-.16c.09 0 .17.04.21.1.04.05.06.14.06.28v.8h.32v-.72c0-.17.01-.25.05-.32a.24.24 0 0 1 .22-.14c.08 0 .15.03.2.1.04.05.05.13.05.28v.8h.33v-.85a.85.85 0 0 0-.09-.42c-.08-.15-.25-.23-.46-.23a.48.48 0 0 0-.43.23.41.41 0 0 0-.4-.23.4.4 0 0 0-.04 0zm2.35 0a.49.49 0 0 0-.04 0c-.4 0-.68.32-.68.77 0 .44.28.76.68.76.19 0 .31-.06.44-.22v.19h.3V8.37h-.3v.2a.49.49 0 0 0-.4-.23zm-5.53 0c-.14 0-.21.04-.3.18v-.15h-.3v1.47h.33v-.82c0-.22.1-.34.3-.34v-.34h-.03zm1.44.03v.32h.52l-.59.83v.32h1.03v-.32h-.64l.6-.83v-.32h-.92zm-2.98.3c.23 0 .4.18.4.45 0 .1-.04.22-.1.3a.36.36 0 0 1-.3.13c-.23 0-.4-.17-.4-.43 0-.27.17-.46.4-.46zm7.07 0c.23 0 .4.18.4.45a.52.52 0 0 1-.1.3.36.36 0 0 1-.3.13c-.23 0-.4-.17-.4-.43 0-.27.16-.46.4-.46zm-5.3.83v.34h.33V9.5h-.33z" fill="#5beedc"/></svg>

<?xml version="1.0" encoding="UTF-8" standalone="no"?>
<svg
   xmlns:dc="http://purl.org/dc/elements/1.1/"
   xmlns:cc="http://creativecommons.org/ns#"
   xmlns:rdf="http://www.w3.org/1999/02/22-rdf-syntax-ns#"
   xmlns:svg="http://www.w3.org/2000/svg"
   xmlns="http://www.w3.org/2000/svg"
   xmlns:sodipodi="http://sodipodi.sourceforge.net/DTD/sodipodi-0.dtd"
   xmlns:inkscape="http://www.inkscape.org/namespaces/inkscape"
   width="48"
   height="48"
   viewBox="0 0 12.7 12.7"
   version="1.1"
   id="svg6"
   sodipodi:docname="application-x-lzma-compressed-tar.svg"
   inkscape:version="0.92.4 (5da689c313, 2019-01-14)">
  <defs
     id="defs10" />
  <sodipodi:namedview
     pagecolor="#ffffff"
     bordercolor="#666666"
     borderopacity="1"
     objecttolerance="10"
     gridtolerance="10"
     guidetolerance="10"
     inkscape:pageopacity="0"
     inkscape:pageshadow="2"
     inkscape:window-width="1087"
     inkscape:window-height="480"
     id="namedview8"
     showgrid="false"
     inkscape:zoom="4.9166667"
     inkscape:cx="2.1355932"
     inkscape:cy="24"
     inkscape:window-x="0"
     inkscape:window-y="25"
     inkscape:window-maximized="0"
     inkscape:current-layer="svg6" />
  <metadata
     id="metadata2">
    <rdf:RDF>
      <cc:Work>
        <dc:format>image/svg+xml</dc:format>
        <dc:type
           rdf:resource="http://purl.org/dc/dcmitype/StillImage" />
        <dc:title></dc:title>
      </cc:Work>
    </rdf:RDF>
  </metadata>
  <path
     d="m 1.21,0.86 -1.07,2.8 h 6.04 v -2.8 z m 5.18,0 v 2.8 h 6.11 l -1.1,-2.8 h -5 z m -6.2,3.03 v 6.31 c 0,0.64 0.25,1.18 0.74,1.64 0.5,0.45 1.08,0.67 1.78,0.67 h 7.25 c 0.7,0 1.28,-0.22 1.78,-0.67 0.49,-0.46 0.73,-1 0.73,-1.64 V 3.9 h -1.12 v 6.3 c 0,0.36 -0.13,0.66 -0.4,0.91 A 1.4,1.4 0 0 1 9.96,11.49 H 2.71 A 1.4,1.4 0 0 1 1.72,11.11 1.19,1.19 0 0 1 1.31,10.21 V 3.88 H 0.19 Z m 1.53,1.4 V 6.35 H 2 V 7.41 H 2.53 V 6.35 H 2.79 V 5.29 Z M 3.04,5.34 V 5.87 H 3.57 V 5.34 Z M 3.57,5.87 V 6.4 H 4.1 V 5.87 Z m 0.53,0 H 4.63 V 5.34 H 4.1 Z m 0.53,0 V 6.4 H 5.16 V 5.87 Z m 0.53,0 H 5.68 V 5.34 H 5.16 Z m 0.52,0 V 6.4 H 6.21 V 5.87 Z m 0.53,0 H 6.74 V 5.34 H 6.21 Z m 0.53,0 V 6.4 H 7.27 V 5.87 Z m 0.53,0 H 7.8 V 5.34 H 7.27 Z m 0.53,0 V 6.4 H 8.33 V 5.87 Z m 0.53,0 H 8.86 V 5.34 H 8.33 Z m 0.53,0 V 6.4 H 9.39 V 5.87 Z m 0.53,0 H 9.92 V 5.34 H 9.39 Z m 0.53,0 V 6.4 h 0.53 V 5.87 Z m 0.53,0 h 0.53 V 5.34 H 10.45 Z M 1.99,5.56 H 2.52 V 6.09 H 1.99 Z M 1.83,7.88 v 0.5 H 1.68 V 8.69 H 1.84 V 9.84 H 2.16 V 8.69 h 0.2 V 8.37 H 2.16 V 7.88 H 1.84 Z m 3.76,0 V 9.84 H 5.91 V 7.88 H 5.6 Z M 3.18,8.34 a 0.49,0.49 0 0 0 -0.03,0 c -0.4,0 -0.69,0.32 -0.69,0.77 0,0.44 0.28,0.76 0.68,0.76 0.19,0 0.32,-0.06 0.45,-0.22 v 0.19 h 0.3 V 8.37 h -0.3 v 0.2 A 0.49,0.49 0 0 0 3.18,8.34 Z m 4.72,0 A 0.4,0.4 0 0 0 7.6,8.51 V 8.37 H 7.3 V 9.84 H 7.62 V 9.12 c 0,-0.15 0.01,-0.25 0.03,-0.3 A 0.24,0.24 0 0 1 7.88,8.66 c 0.09,0 0.17,0.04 0.21,0.1 0.04,0.05 0.06,0.14 0.06,0.28 v 0.8 H 8.47 V 9.12 C 8.47,8.95 8.48,8.87 8.52,8.8 A 0.24,0.24 0 0 1 8.74,8.66 c 0.08,0 0.15,0.03 0.2,0.1 0.04,0.05 0.05,0.13 0.05,0.28 v 0.8 H 9.32 V 8.99 A 0.85,0.85 0 0 0 9.23,8.57 C 9.15,8.42 8.98,8.34 8.77,8.34 A 0.48,0.48 0 0 0 8.34,8.57 0.41,0.41 0 0 0 7.94,8.34 0.4,0.4 0 0 0 7.9,8.34 Z m 2.35,0 a 0.49,0.49 0 0 0 -0.04,0 c -0.4,0 -0.68,0.32 -0.68,0.77 0,0.44 0.28,0.76 0.68,0.76 0.19,0 0.31,-0.06 0.44,-0.22 v 0.19 h 0.3 V 8.37 h -0.3 v 0.2 a 0.49,0.49 0 0 0 -0.4,-0.23 z m -5.53,0 c -0.14,0 -0.21,0.04 -0.3,0.18 V 8.37 H 4.12 V 9.84 H 4.45 V 9.02 c 0,-0.22 0.1,-0.34 0.3,-0.34 V 8.34 Z M 6.16,8.37 V 8.69 H 6.68 L 6.09,9.52 V 9.84 H 7.12 V 9.52 H 6.48 L 7.08,8.69 V 8.37 Z m -2.98,0.3 c 0.23,0 0.4,0.18 0.4,0.45 0,0.1 -0.04,0.22 -0.1,0.3 a 0.36,0.36 0 0 1 -0.3,0.13 c -0.23,0 -0.4,-0.17 -0.4,-0.43 0,-0.27 0.17,-0.46 0.4,-0.46 z m 7.07,0 c 0.23,0 0.4,0.18 0.4,0.45 a 0.52,0.52 0 0 1 -0.1,0.3 0.36,0.36 0 0 1 -0.3,0.13 c -0.23,0 -0.4,-0.17 -0.4,-0.43 0,-0.27 0.16,-0.46 0.4,-0.46 z M 4.95,9.5 V 9.84 H 5.28 V 9.5 Z"
     id="path4"
     inkscape:connector-curvature="0"
     style="fill:#5beedc" />
</svg>
